public/Icons/instagram.svg

<svg width="50" height="50" viewBox="0 0 50 50" fill="none" xmlns="http://www.w3.org/2000/svg">
<path d="M25.0098 13.7695C18.7988 13.7695 13.7891 18.7793 13.7891 24.9902C13.7891 31.2012 18.7988 36.2109 25.0098 36.2109C31.2207 36.2109 36.2305 31.2012 36.2305 24.9902C36.2305 18.7793 31.2207 13.7695 25.0098 13.7695ZM25.0098 32.2852C20.9961 32.2852 17.7148 29.0137 17.7148 24.9902C17.7148 20.9668 20.9863 17.6953 25.0098 17.6953C29.0332 17.6953 32.3047 20.9668 32.3047 24.9902C32.3047 29.0137 29.0234 32.2852 25.0098 32.2852ZM39.3066 13.3105C39.3066 14.7656 38.1348 15.9277 36.6895 15.9277C35.2344 15.9277 34.0723 14.7559 34.0723 13.3105C34.0723 11.8652 35.2441 10.6934 36.6895 10.6934C38.1348 10.6934 39.3066 11.8652 39.3066 13.3105ZM46.7383 15.9668C46.5723 12.4609 45.7715 9.35547 43.2031 6.79687C40.6445 4.23828 37.5391 3.4375 34.0332 3.26172C30.4199 3.05664 19.5898 3.05664 15.9766 3.26172C12.4805 3.42773 9.375 4.22852 6.80664 6.78711C4.23828 9.3457 3.44727 12.4512 3.27148 15.957C3.06641 19.5703 3.06641 30.4004 3.27148 34.0137C3.4375 37.5195 4.23828 40.625 6.80664 43.1836C9.375 45.7422 12.4707 46.543 15.9766 46.7188C19.5898 46.9238 30.4199 46.9238 34.0332 46.7188C37.5391 46.5527 40.6445 45.752 43.2031 43.1836C45.7617 40.625 46.5625 37.5195 46.7383 34.0137C46.9434 30.4004 46.9434 19.5801 46.7383 15.9668ZM42.0703 37.8906C41.3086 39.8047 39.834 41.2793 37.9102 42.0508C35.0293 43.1934 28.1934 42.9297 25.0098 42.9297C21.8262 42.9297 14.9805 43.1836 12.1094 42.0508C10.1953 41.2891 8.7207 39.8145 7.94922 37.8906C6.80664 35.0098 7.07031 28.1738 7.07031 24.9902C7.07031 21.8066 6.81641 14.9609 7.94922 12.0898C8.71094 10.1758 10.1855 8.70117 12.1094 7.92969C14.9902 6.78711 21.8262 7.05078 25.0098 7.05078C28.1934 7.05078 35.0391 6.79687 37.9102 7.92969C39.8242 8.69141 41.2988 10.166 42.0703 12.0898C43.2129 14.9707 42.9492 21.8066 42.9492 24.9902C42.9492 28.1738 43.2129 35.0195 42.0703 37.8906Z" fill="white"/>
</svg>

<?xml version="1.0" encoding="UTF-8"?>
<svg xmlns="http://www.w3.org/2000/svg" version="1.1" viewBox="0 0 50 50">
  <defs>
    <style>
      .cls-1 {
        fill: #ffc43d;
      }
    </style>
  </defs>
  <!-- Generator: Adobe Illustrator 28.6.0, SVG Export Plug-In . SVG Version: 1.2.0 Build 709)  -->
  <g>
    <g id="Layer_1">
      <path class="cls-1" d="M25,13.8c-6.2,0-11.2,5-11.2,11.2s5,11.2,11.2,11.2,11.2-5,11.2-11.2-5-11.2-11.2-11.2ZM25,32.3c-4,0-7.3-3.3-7.3-7.3s3.3-7.3,7.3-7.3,7.3,3.3,7.3,7.3-3.3,7.3-7.3,7.3ZM39.3,13.3c0,1.5-1.2,2.6-2.6,2.6s-2.6-1.2-2.6-2.6,1.2-2.6,2.6-2.6,2.6,1.2,2.6,2.6ZM46.7,16c-.2-3.5-1-6.6-3.5-9.2-2.6-2.6-5.7-3.4-9.2-3.5-3.6-.2-14.4-.2-18.1,0-3.5.2-6.6,1-9.2,3.5-2.6,2.6-3.4,5.7-3.5,9.2-.2,3.6-.2,14.4,0,18.1.2,3.5,1,6.6,3.5,9.2,2.6,2.6,5.7,3.4,9.2,3.5,3.6.2,14.4.2,18.1,0,3.5-.2,6.6-1,9.2-3.5,2.6-2.6,3.4-5.7,3.5-9.2.2-3.6.2-14.4,0-18ZM42.1,37.9c-.8,1.9-2.2,3.4-4.2,4.2-2.9,1.1-9.7.9-12.9.9s-10,.3-12.9-.9c-1.9-.8-3.4-2.2-4.2-4.2-1.1-2.9-.9-9.7-.9-12.9s-.3-10,.9-12.9c.8-1.9,2.2-3.4,4.2-4.2,2.9-1.1,9.7-.9,12.9-.9s10-.3,12.9.9c1.9.8,3.4,2.2,4.2,4.2,1.1,2.9.9,9.7.9,12.9s.3,10-.9,12.9Z"/>
    </g>
  </g>
</svg>
